img/s/seatgeek.com.svg

<svg xmlns:xlink="http://www.w3.org/1999/xlink" xmlns="http://www.w3.org/2000/svg" fill="currentColor" stroke="none"  width="1.4083333333333334" viewBox="0 0 169 120" class="Icon__Svg-sc-1km1vmv-0 elJnDf" height="1" ><path fill="#FF5B49" d="M90.6958 54.884L93.8219 45.7815C99.1798 45.7614 104.531 45.721 109.882 45.6672L113.035 54.8303C117.694 54.8101 122.407 54.8975 127.059 54.8706L108.504 4.02018C106.299 4.10758 97.3378 4.34287 95.2269 4.39665L81.2168 43.9193C75.4756 43.9126 70.1042 43.879 64.2487 43.8252V33.6L74.7093 33.721V24.5042L64.2487 24.3496V14.5345C75.6235 14.7966 80.874 14.7429 80.8673 14.7429L78.7294 3.79159C78.7294 3.79159 65.1227 3.56976 50.2656 2.94455V54.8168C53.2101 54.8303 67.9193 54.8773 77.3244 54.8975V54.9042C79.0387 54.9042 80.6656 54.9042 82.2723 54.9109C82.7294 54.9109 83.1529 54.9109 83.5227 54.9109C85.8689 54.884 88.195 54.884 90.6958 54.884ZM106.709 36.4235C103.476 36.4706 100.235 36.5109 96.995 36.5378L101.869 22.3529L106.709 36.4235Z"></path><path fill="#FF5B49" d="M132.76 54.8571C137.412 54.8235 142.057 54.8706 146.703 54.8303L146.77 12.9277C151.845 12.5244 156.914 12.0807 161.976 11.5765L159.819 0C146.487 1.59328 133.143 2.75631 119.745 3.49581L117.58 14.716C122.642 14.5008 127.704 14.2387 132.76 13.9294V54.8571Z"></path><path fill="#FF5B49" d="M23.1933 15.2403C23.1933 8.92773 36.6857 10.6286 42.9109 14.2925L43.4891 1.82186C42.0168 1.36472 36.0605 0.00674438 28.9546 0.00674438C18.9042 0.00674438 10.1311 5.94959 10.1311 15.395C10.1311 32.2353 33.116 33.3983 33.116 40.1546C33.116 49.042 17.8756 44.1009 10.1311 36.7664V50.9715C10.1311 50.9715 15.8319 56.2689 27.1597 56.2689C39.6437 56.2689 45.9832 48.1345 45.9832 39.3681C45.9899 22.2925 23.1933 22.2185 23.1933 15.2403Z"></path><path fill="#FF5B49" d="M168.928 120L150.514 88.6386L166.803 63.516H151.086L136.813 85.9025C136.867 78.4538 136.76 70.9983 136.813 63.5428C132.108 63.5294 127.57 63.5227 122.857 63.516C122.857 77.1899 122.857 102.124 122.857 115.798C122.857 115.798 132.074 116.363 136.813 116.733C136.813 108.666 136.813 100.632 136.813 92.5714L150.588 117.882C157.466 118.588 163.711 119.314 168.928 120Z"></path><path fill="#FF5B49" d="M64.2757 93.5462C67.7513 93.4924 74.7025 93.4185 74.7025 93.4185V84.1076C74.7025 84.1076 67.7513 84.1613 64.2757 84.195C64.2757 80.9143 64.2757 77.6269 64.2757 74.3462C74.0236 74.3529 80.874 74.4067 80.874 74.4067L78.716 63.5966H50.2924V115.496C56.8403 115.072 74.8504 114.662 80.9681 114.642C81.6874 110.978 82.4067 107.308 83.1261 103.65C76.8403 103.65 70.5547 103.724 64.2757 103.859C64.2757 100.39 64.2757 97.0151 64.2757 93.5462Z"></path><path fill="#FF5B49" d="M100.605 93.4387C103.839 93.4857 107.079 93.5395 110.313 93.6135C110.313 90.5143 110.313 87.4151 110.313 84.316C107.079 84.2622 103.845 84.2286 100.605 84.195C100.605 80.9008 100.605 77.7143 100.605 74.4202L117.291 74.5277L115.14 63.6101C115.14 63.6101 96.1278 63.5966 86.6219 63.5966V114.649C96.3025 114.655 106.857 114.965 117.237 115.496L119.489 104.424C114.017 104.229 105.587 103.953 100.612 103.845C100.605 100.37 100.605 96.9008 100.605 93.4387Z"></path><path fill="#FF5B49" d="M23.3076 94.7429L31.7916 94.3261L31.7984 105.136C19.0521 106.292 13.8084 102.064 13.8084 89.4521C13.8084 77.7479 23.2807 74.8303 32.0068 74.8303C39.6975 74.8303 43.7781 75.684 43.7781 75.684L41.4723 63.5563C39.442 63.4555 35.8454 63.3412 29.7412 63.3412C15.637 63.3412 0 70.0908 0 91.4487C0 109.425 12.2891 118.568 27.879 117.103C38.8572 116.074 43.7916 115.852 43.7916 115.852V84.5647L25.4588 84.9748L23.3076 94.7429Z"></path></svg>

<svg xmlns="http://www.w3.org/2000/svg" fill="none" viewBox="0 0 169 120"><path fill="#ff5b49" d="m23.3 94.74 8.5-.41v10.8c-12.75 1.16-18-3.07-18-15.68 0-11.7 9.48-14.62 18.2-14.62 7.7 0 11.78.85 11.78.85l-2.3-12.12c-2.04-.1-5.63-.22-11.74-.22C15.64 63.34 0 70.1 0 91.44c0 17.99 12.29 27.13 27.88 25.66a372.3 372.3 0 0 1 15.91-1.25V84.56l-18.33.41zm77.3-1.3 9.71.17v-9.3l-9.7-.11v-9.78l16.68.1-2.15-10.91-28.52-.01v51.05c9.68 0 20.24.32 30.62.85l2.25-11.08-18.88-.57V93.44zm-36.32.1 10.42-.12V84.1l-10.42.09v-9.85l16.6.06-2.17-10.8H50.29v51.9c6.55-.43 24.56-.84 30.68-.86l2.16-10.99-18.85.2v-10.3zM168.93 120 150.5 88.64l16.3-25.12h-15.72L136.8 85.9V63.54l-13.95-.02v52.28l13.95.93V92.57l13.78 25.31 18.34 2.12zM23.19 15.24c0-6.31 13.5-4.61 19.72-.95l.58-12.47A57.36 57.36 0 0 0 28.95.01C18.9 0 10.13 5.95 10.13 15.39c0 16.85 22.99 18 22.99 24.76 0 8.9-15.24 3.95-22.99-3.38v14.2s5.7 5.3 17.03 5.3c12.48 0 18.82-8.14 18.82-16.9C46 22.29 23.2 22.22 23.2 15.24zm109.57 39.62 13.94-.03.07-41.9 15.2-1.35L159.83 0a630.07 630.07 0 0 1-40.07 3.5l-2.17 11.22 15.18-.8zm-42.06.02 3.12-9.1 16.06-.11 3.15 9.16 14.03.04L108.5 4.02l-13.27.38-14.01 39.52c-5.74 0-11.12-.04-16.97-.1V33.6l10.46.12V24.5l-10.46-.15v-9.82l16.62.21L78.73 3.8l-28.46-.85v51.88l27.05.08 4.95.01h1.25l7.18-.03zm16-18.46-9.7.12 4.87-14.19z"/></svg>
